Newaita-dark/apps/48/empathy.svg

<svg height="48pt" viewBox="0 0 48 48" width="48pt" xmlns="http://www.w3.org/2000/svg" xmlns:xlink="http://www.w3.org/1999/xlink"><linearGradient id="a"><stop offset="0" stop-opacity=".313726"/><stop offset=".222222" stop-opacity=".27451"/><stop offset="1" stop-opacity="0"/></linearGradient><radialGradient id="b" cx="450.908936" cy="189.579361" gradientTransform="matrix(.00000016 -.117199 -.126575 -.00000015 62.893328 97.377562)" gradientUnits="userSpaceOnUse" r="21.166656" xlink:href="#a"/><radialGradient id="c" cx="450.908936" cy="189.579361" gradientTransform="matrix(-.00000016 .117199 .126575 .00000015 14.306241 -9.306655)" gradientUnits="userSpaceOnUse" r="21.166656" xlink:href="#a"/><radialGradient id="d" cx="450.908936" cy="189.579361" gradientTransform="matrix(-.00000016 -.117199 .126575 -.00000015 14.306241 97.377562)" gradientUnits="userSpaceOnUse" r="21.166656" xlink:href="#a"/><radialGradient id="e" cx="450.908936" cy="189.579361" gradientTransform="matrix(.00000016 .117199 -.126575 .00000015 62.893326 -9.306656)" gradientUnits="userSpaceOnUse" r="21.166656" xlink:href="#a"/><linearGradient id="f" gradientTransform="matrix(.00331698 0 0 .093759 37.171196 22.142743)" gradientUnits="userSpaceOnUse" x1="255.323059" x2="255.323044" y1="233.5" y2="254.666656"><stop offset="0" stop-opacity=".27451"/><stop offset="1" stop-opacity="0"/></linearGradient><linearGradient id="g"><stop offset="0" stop-color="#e0e0e0"/><stop offset="1" stop-color="#eee"/></linearGradient><linearGradient id="h" gradientUnits="userSpaceOnUse" x1="370.416656" x2="370.416656" xlink:href="#g" y1="254.666672" y2="-168.666656"/><linearGradient id="i" gradientUnits="userSpaceOnUse" x1="23.814786" x2="23.814786" xlink:href="#g" y1="44.03546750005" y2="4.34415649995"/><linearGradient id="j"><stop offset="0" stop-color="#42a5f5"/><stop offset="1" stop-color="#64b5f6"/></linearGradient><linearGradient id="k" gradientUnits="userSpaceOnUse" x1="15.8765245" x2="15.8765245" xlink:href="#j" y1="23.19752721856" y2="17.24383325005"/><linearGradient id="l" gradientUnits="userSpaceOnUse" x1="23.8250545" x2="23.8250545" xlink:href="#j" y1="23.19752721856" y2="17.24383325005"/><linearGradient id="m" gradientUnits="userSpaceOnUse" x1="31.7633125" x2="31.7633125" xlink:href="#j" y1="23.19752721856" y2="17.24383325005"/><path d="m39.195312 44.035156h2.382813v-1.984375h-2.382813zm0 0" fill="url(#b)"/><path d="m38.003906 44.035156h-2.382812v1.984375h2.382812zm0 0" fill="url(#c)"/><path d="m38.003906 44.035156h-2.382812v-1.984375h2.382812zm0 0" fill="url(#d)"/><path d="m39.195312 44.035156h2.382813v1.984375h-2.382813zm0 0" fill="url(#e)"/><path d="m38.003906 44.035156h1.191406v1.984375h-1.191406zm0 0" fill="url(#f)"/><path d="m306.929023 138.341258c-9.624081 0-14.206977 11.873866-7.040994 18.28992l105.823228 95.240905c6.791018 6.082752 17.539991 1.291543 17.539991-7.790923v-95.240905c0-5.791114-4.707884-10.498997-10.498997-10.498997zm0 0" fill="url(#h)" stroke="#212121" stroke-linecap="round" stroke-linejoin="round" stroke-width="3" transform="matrix(.093759 0 0 .093759 0 20.158175)"/><path d="m27.875 33.714844c-.15625.363281-.105469.816406.242188 1.128906l9.921874 8.929688c.636719.570312 1.644532.121093 1.644532-.730469v-.800781c0 .851562-1.007813 1.300781-1.644532.730468l-9.921874-8.929687c-.109376-.097657-.1875-.210938-.242188-.328125zm0 0" fill-opacity=".235294"/><path d="m6.945312 4.34375h33.738282c1.644531 0 2.976562 1.332031 2.976562 2.976562v25.800782c0 1.644531-1.332031 2.976562-2.976562 2.976562h-33.738282c-1.644531 0-2.976562-1.332031-2.976562-2.976562v-25.800782c0-1.644531 1.332031-2.976562 2.976562-2.976562zm0 0" fill="url(#i)"/><path d="m15.875 17.242188c1.644531 0 2.976562 1.335937 2.976562 2.976562 0 1.644531-1.332031 2.980469-2.976562 2.980469-1.640625 0-2.976562-1.335938-2.976562-2.980469 0-1.640625 1.335937-2.976562 2.976562-2.976562zm0 0" fill="url(#k)"/><path d="m15.875 17.242188c-1.648438 0-2.976562 1.328124-2.976562 2.976562 0 .085938.003906.167969.011718.25.125-1.53125 1.402344-2.730469 2.964844-2.730469 1.566406 0 2.84375 1.199219 2.96875 2.730469.007812-.082031.007812-.164062.007812-.25 0-1.648438-1.324218-2.976562-2.976562-2.976562zm0 0" fill="#fff" fill-opacity=".392157"/><path d="m15.875 23.816406c-1.648438 0-2.976562-1.328125-2.976562-2.976562 0-.082032.003906-.164063.011718-.246094.125 1.53125 1.402344 2.726562 2.964844 2.726562 1.566406 0 2.84375-1.195312 2.96875-2.726562.007812.082031.007812.164062.007812.246094 0 1.648437-1.324218 2.976562-2.976562 2.976562zm0 0" fill-opacity=".235294"/><path d="m15.875 17.101562c-1.722656 0-3.117188 1.394532-3.117188 3.117188 0 1.726562 1.394532 3.121094 3.117188 3.121094 1.726562 0 3.117188-1.394532 3.117188-3.121094 0-1.722656-1.390626-3.117188-3.117188-3.117188zm0 .28125c1.574219 0 2.835938 1.265626 2.835938 2.835938 0 1.574219-1.261719 2.839844-2.835938 2.839844-1.570312 0-2.835938-1.265625-2.835938-2.839844 0-1.570312 1.265626-2.835938 2.835938-2.835938zm0 0" fill="#212121"/><path d="m6.945312 4.34375c-1.648437 0-2.976562 1.328125-2.976562 2.976562v.746094c0-1.648437 1.328125-2.976562 2.976562-2.976562h33.738282c1.648437 0 2.976562 1.328125 2.976562 2.976562v-.746094c0-1.648437-1.328125-2.976562-2.976562-2.976562zm0 0" fill="#f8f8f8"/><path d="m6.945312 36.097656c-1.648437 0-2.976562-1.328125-2.976562-2.976562v-.746094c0 1.648438 1.328125 2.976562 2.976562 2.976562h33.738282c1.648437 0 2.976562-1.328124 2.976562-2.976562v.746094c0 1.648437-1.328125 2.976562-2.976562 2.976562zm0 0" fill-opacity=".235294"/><path d="m74.076259-168.671091h359.840637c17.539992 0 31.746969 14.206977 31.746969 31.746968v275.182055c0 17.539992-14.206977 31.746969-31.746969 31.746969h-359.840637c-17.539991 0-31.746968-14.206977-31.746968-31.746969v-275.182055c0-17.539991 14.206977-31.746968 31.746968-31.746968zm0 0" fill="none" stroke="#212121" stroke-linecap="round" stroke-linejoin="round" stroke-width="3" transform="matrix(.093759 0 0 .093759 0 20.158175)"/><path d="m29.515625 36.097656.828125.742188h9.347656v-.742188zm0 0" fill-opacity=".235294"/><path d="m23.824219 17.242188c1.644531 0 2.976562 1.335937 2.976562 2.976562 0 1.644531-1.332031 2.980469-2.976562 2.980469s-2.976563-1.335938-2.976563-2.980469c0-1.640625 1.332032-2.976562 2.976563-2.976562zm0 0" fill="url(#l)"/><path d="m23.824219 17.242188c-1.648438 0-2.976563 1.328124-2.976563 2.976562 0 .085938.003906.167969.011719.25.125-1.53125 1.398437-2.730469 2.964844-2.730469 1.566406 0 2.84375 1.199219 2.96875 2.730469.003906-.082031.007812-.164062.007812-.25 0-1.648438-1.328125-2.976562-2.976562-2.976562zm0 0" fill="#fff" fill-opacity=".392157"/><path d="m23.824219 23.816406c-1.648438 0-2.976563-1.328125-2.976563-2.976562 0-.082032.003906-.164063.011719-.246094.125 1.53125 1.398437 2.726562 2.964844 2.726562 1.566406 0 2.84375-1.195312 2.96875-2.726562.003906.082031.007812.164062.007812.246094 0 1.648437-1.328125 2.976562-2.976562 2.976562zm0 0" fill-opacity=".235294"/><path d="m23.824219 17.101562c-1.722657 0-3.117188 1.394532-3.117188 3.117188 0 1.726562 1.394531 3.121094 3.117188 3.121094 1.726562 0 3.117187-1.394532 3.117187-3.121094 0-1.722656-1.390625-3.117188-3.117187-3.117188zm0 .28125c1.574219 0 2.835937 1.265626 2.835937 2.835938 0 1.574219-1.261718 2.839844-2.835937 2.839844s-2.835938-1.265625-2.835938-2.839844c0-1.570312 1.261719-2.835938 2.835938-2.835938zm0 0" fill="#212121"/><path d="m31.761719 17.242188c1.644531 0 2.976562 1.335937 2.976562 2.976562 0 1.644531-1.332031 2.980469-2.976562 2.980469-1.640625 0-2.976563-1.335938-2.976563-2.980469 0-1.640625 1.335938-2.976562 2.976563-2.976562zm0 0" fill="url(#m)"/><path d="m31.761719 17.242188c-1.648438 0-2.976563 1.328124-2.976563 2.976562 0 .085938.003906.167969.011719.25.125-1.53125 1.402344-2.730469 2.964844-2.730469 1.566406 0 2.84375 1.199219 2.96875 2.730469.007812-.082031.007812-.164062.007812-.25 0-1.648438-1.324219-2.976562-2.976562-2.976562zm0 0" fill="#fff" fill-opacity=".392157"/><path d="m31.761719 23.816406c-1.648438 0-2.976563-1.328125-2.976563-2.976562 0-.082032.003906-.164063.011719-.246094.125 1.53125 1.402344 2.726562 2.964844 2.726562 1.566406 0 2.84375-1.195312 2.96875-2.726562.007812.082031.007812.164062.007812.246094 0 1.648437-1.324219 2.976562-2.976562 2.976562zm0 0" fill-opacity=".235294"/><path d="m31.761719 17.101562c-1.722657 0-3.117188 1.394532-3.117188 3.117188 0 1.726562 1.394531 3.121094 3.117188 3.121094 1.726562 0 3.117187-1.394532 3.117187-3.121094 0-1.722656-1.390625-3.117188-3.117187-3.117188zm0 .28125c1.574219 0 2.835937 1.265626 2.835937 2.835938 0 1.574219-1.261718 2.839844-2.835937 2.839844-1.570313 0-2.835938-1.265625-2.835938-2.839844 0-1.570312 1.265625-2.835938 2.835938-2.835938zm0 0" fill="#212121"/></svg>

<?xml version="1.0" encoding="UTF-8"?>
<svg xmlns="http://www.w3.org/2000/svg" xmlns:xlink="http://www.w3.org/1999/xlink" width="48pt" height="48pt" viewBox="0 0 48 48" version="1.1">
<defs>
<radialGradient id="radial0" gradientUnits="userSpaceOnUse" cx="450.908936" cy="189.579361" fx="450.908936" fy="189.579361" r="21.166656" gradientTransform="matrix(0.000000156753,-0.117199,-0.126575,-0.000000152308,62.893328,97.377562)">
<stop offset="0" style="stop-color:rgb(0%,0%,0%);stop-opacity:0.313726;"/>
<stop offset="0.222222" style="stop-color:rgb(0%,0%,0%);stop-opacity:0.27451;"/>
<stop offset="1" style="stop-color:rgb(0%,0%,0%);stop-opacity:0;"/>
</radialGradient>
<radialGradient id="radial1" gradientUnits="userSpaceOnUse" cx="450.908936" cy="189.579361" fx="450.908936" fy="189.579361" r="21.166656" gradientTransform="matrix(-0.000000156753,0.117199,0.126575,0.000000152308,14.306241,-9.306655)">
<stop offset="0" style="stop-color:rgb(0%,0%,0%);stop-opacity:0.313726;"/>
<stop offset="0.222222" style="stop-color:rgb(0%,0%,0%);stop-opacity:0.27451;"/>
<stop offset="1" style="stop-color:rgb(0%,0%,0%);stop-opacity:0;"/>
</radialGradient>
<radialGradient id="radial2" gradientUnits="userSpaceOnUse" cx="450.908936" cy="189.579361" fx="450.908936" fy="189.579361" r="21.166656" gradientTransform="matrix(-0.000000156753,-0.117199,0.126575,-0.000000152308,14.306241,97.377562)">
<stop offset="0" style="stop-color:rgb(0%,0%,0%);stop-opacity:0.313726;"/>
<stop offset="0.222222" style="stop-color:rgb(0%,0%,0%);stop-opacity:0.27451;"/>
<stop offset="1" style="stop-color:rgb(0%,0%,0%);stop-opacity:0;"/>
</radialGradient>
<radialGradient id="radial3" gradientUnits="userSpaceOnUse" cx="450.908936" cy="189.579361" fx="450.908936" fy="189.579361" r="21.166656" gradientTransform="matrix(0.000000156753,0.117199,-0.126575,0.000000152308,62.893326,-9.306656)">
<stop offset="0" style="stop-color:rgb(0%,0%,0%);stop-opacity:0.313726;"/>
<stop offset="0.222222" style="stop-color:rgb(0%,0%,0%);stop-opacity:0.27451;"/>
<stop offset="1" style="stop-color:rgb(0%,0%,0%);stop-opacity:0;"/>
</radialGradient>
<linearGradient id="linear0" gradientUnits="userSpaceOnUse" x1="255.323059" y1="233.5" x2="255.323044" y2="254.666656" gradientTransform="matrix(0.00331698,0,0,0.093759,37.171196,22.142743)">
<stop offset="0" style="stop-color:rgb(0%,0%,0%);stop-opacity:0.27451;"/>
<stop offset="1" style="stop-color:rgb(0%,0%,0%);stop-opacity:0;"/>
</linearGradient>
<linearGradient id="linear1" gradientUnits="userSpaceOnUse" x1="370.416656" y1="254.666672" x2="370.416656" y2="-168.666656" gradientTransform="matrix(1,0,0,1,0,0)">
<stop offset="0" style="stop-color:rgb(87.843138%,87.843138%,87.843138%);stop-opacity:1;"/>
<stop offset="1" style="stop-color:rgb(93.333334%,93.333334%,93.333334%);stop-opacity:1;"/>
</linearGradient>
<linearGradient id="linear2" gradientUnits="userSpaceOnUse" x1="254" y1="254.666672" x2="254" y2="-168.666672" gradientTransform="matrix(0.093759,0,0,0.093759,0,20.158175)">
<stop offset="0" style="stop-color:rgb(87.843138%,87.843138%,87.843138%);stop-opacity:1;"/>
<stop offset="1" style="stop-color:rgb(93.333334%,93.333334%,93.333334%);stop-opacity:1;"/>
</linearGradient>
<linearGradient id="linear3" gradientUnits="userSpaceOnUse" x1="190.5" y1="32.416645" x2="190.5" y2="-31.083328" gradientTransform="matrix(0.093759,0,0,0.093759,-1.984565,20.158175)">
<stop offset="0" style="stop-color:rgb(25.882354%,64.705884%,96.078432%);stop-opacity:1;"/>
<stop offset="1" style="stop-color:rgb(39.215687%,70.980394%,96.470588%);stop-opacity:1;"/>
</linearGradient>
<linearGradient id="linear4" gradientUnits="userSpaceOnUse" x1="190.5" y1="32.416645" x2="190.5" y2="-31.083328" gradientTransform="matrix(0.093759,0,0,0.093759,5.963965,20.158175)">
<stop offset="0" style="stop-color:rgb(25.882354%,64.705884%,96.078432%);stop-opacity:1;"/>
<stop offset="1" style="stop-color:rgb(39.215687%,70.980394%,96.470588%);stop-opacity:1;"/>
</linearGradient>
<linearGradient id="linear5" gradientUnits="userSpaceOnUse" x1="190.5" y1="32.416645" x2="190.5" y2="-31.083328" gradientTransform="matrix(0.093759,0,0,0.093759,13.902223,20.158175)">
<stop offset="0" style="stop-color:rgb(25.882354%,64.705884%,96.078432%);stop-opacity:1;"/>
<stop offset="1" style="stop-color:rgb(39.215687%,70.980394%,96.470588%);stop-opacity:1;"/>
</linearGradient>
</defs>
<g id="surface1">
<path style=" stroke:none;fill-rule:nonzero;fill:url(#radial0);" d="M 39.195312 44.035156 L 41.578125 44.035156 L 41.578125 42.050781 L 39.195312 42.050781 Z M 39.195312 44.035156 "/>
<path style=" stroke:none;fill-rule:nonzero;fill:url(#radial1);" d="M 38.003906 44.035156 L 35.621094 44.035156 L 35.621094 46.019531 L 38.003906 46.019531 Z M 38.003906 44.035156 "/>
<path style=" stroke:none;fill-rule:nonzero;fill:url(#radial2);" d="M 38.003906 44.035156 L 35.621094 44.035156 L 35.621094 42.050781 L 38.003906 42.050781 Z M 38.003906 44.035156 "/>
<path style=" stroke:none;fill-rule:nonzero;fill:url(#radial3);" d="M 39.195312 44.035156 L 41.578125 44.035156 L 41.578125 46.019531 L 39.195312 46.019531 Z M 39.195312 44.035156 "/>
<path style=" stroke:none;fill-rule:nonzero;fill:url(#linear0);" d="M 38.003906 44.035156 L 39.195312 44.035156 L 39.195312 46.019531 L 38.003906 46.019531 Z M 38.003906 44.035156 "/>
<path style="fill-rule:nonzero;fill:url(#linear1);stroke-width:3;stroke-linecap:round;stroke-linejoin:round;stroke:rgb(12.941177%,12.941177%,12.941177%);stroke-opacity:1;stroke-miterlimit:4;" d="M 306.929023 138.341258 C 297.304942 138.341258 292.722046 150.215124 299.888029 156.631178 L 405.711257 251.872083 C 412.502275 257.954835 423.251248 253.163626 423.251248 244.08116 L 423.251248 148.840255 C 423.251248 143.049141 418.543364 138.341258 412.752251 138.341258 Z M 306.929023 138.341258 " transform="matrix(0.093759,0,0,0.093759,0,20.158175)"/>
<path style=" stroke:none;fill-rule:nonzero;fill:rgb(0%,0%,0%);fill-opacity:0.235294;" d="M 27.875 33.714844 C 27.71875 34.078125 27.769531 34.53125 28.117188 34.84375 L 38.039062 43.773438 C 38.675781 44.34375 39.683594 43.894531 39.683594 43.042969 L 39.683594 42.242188 C 39.683594 43.09375 38.675781 43.542969 38.039062 42.972656 L 28.117188 34.042969 C 28.007812 33.945312 27.929688 33.832031 27.875 33.714844 Z M 27.875 33.714844 "/>
<path style=" stroke:none;fill-rule:nonzero;fill:url(#linear2);" d="M 6.945312 4.34375 L 40.683594 4.34375 C 42.328125 4.34375 43.660156 5.675781 43.660156 7.320312 L 43.660156 33.121094 C 43.660156 34.765625 42.328125 36.097656 40.683594 36.097656 L 6.945312 36.097656 C 5.300781 36.097656 3.96875 34.765625 3.96875 33.121094 L 3.96875 7.320312 C 3.96875 5.675781 5.300781 4.34375 6.945312 4.34375 Z M 6.945312 4.34375 "/>
<path style=" stroke:none;fill-rule:nonzero;fill:url(#linear3);" d="M 15.875 17.242188 C 17.519531 17.242188 18.851562 18.578125 18.851562 20.21875 C 18.851562 21.863281 17.519531 23.199219 15.875 23.199219 C 14.234375 23.199219 12.898438 21.863281 12.898438 20.21875 C 12.898438 18.578125 14.234375 17.242188 15.875 17.242188 Z M 15.875 17.242188 "/>
<path style=" stroke:none;fill-rule:nonzero;fill:rgb(100%,100%,100%);fill-opacity:0.392157;" d="M 15.875 17.242188 C 14.226562 17.242188 12.898438 18.570312 12.898438 20.21875 C 12.898438 20.304688 12.902344 20.386719 12.910156 20.46875 C 13.035156 18.9375 14.3125 17.738281 15.875 17.738281 C 17.441406 17.738281 18.71875 18.9375 18.84375 20.46875 C 18.851562 20.386719 18.851562 20.304688 18.851562 20.21875 C 18.851562 18.570312 17.527344 17.242188 15.875 17.242188 Z M 15.875 17.242188 "/>
<path style=" stroke:none;fill-rule:nonzero;fill:rgb(0%,0%,0%);fill-opacity:0.235294;" d="M 15.875 23.816406 C 14.226562 23.816406 12.898438 22.488281 12.898438 20.839844 C 12.898438 20.757812 12.902344 20.675781 12.910156 20.59375 C 13.035156 22.125 14.3125 23.320312 15.875 23.320312 C 17.441406 23.320312 18.71875 22.125 18.84375 20.59375 C 18.851562 20.675781 18.851562 20.757812 18.851562 20.839844 C 18.851562 22.488281 17.527344 23.816406 15.875 23.816406 Z M 15.875 23.816406 "/>
<path style=" stroke:none;fill-rule:nonzero;fill:rgb(12.941177%,12.941177%,12.941177%);fill-opacity:1;" d="M 15.875 17.101562 C 14.152344 17.101562 12.757812 18.496094 12.757812 20.21875 C 12.757812 21.945312 14.152344 23.339844 15.875 23.339844 C 17.601562 23.339844 18.992188 21.945312 18.992188 20.21875 C 18.992188 18.496094 17.601562 17.101562 15.875 17.101562 Z M 15.875 17.382812 C 17.449219 17.382812 18.710938 18.648438 18.710938 20.21875 C 18.710938 21.792969 17.449219 23.058594 15.875 23.058594 C 14.304688 23.058594 13.039062 21.792969 13.039062 20.21875 C 13.039062 18.648438 14.304688 17.382812 15.875 17.382812 Z M 15.875 17.382812 "/>
<path style=" stroke:none;fill-rule:nonzero;fill:rgb(97.254902%,97.254902%,97.254902%);fill-opacity:1;" d="M 6.945312 4.34375 C 5.296875 4.34375 3.96875 5.671875 3.96875 7.320312 L 3.96875 8.066406 C 3.96875 6.417969 5.296875 5.089844 6.945312 5.089844 L 40.683594 5.089844 C 42.332031 5.089844 43.660156 6.417969 43.660156 8.066406 L 43.660156 7.320312 C 43.660156 5.671875 42.332031 4.34375 40.683594 4.34375 Z M 6.945312 4.34375 "/>
<path style=" stroke:none;fill-rule:nonzero;fill:rgb(0%,0%,0%);fill-opacity:0.235294;" d="M 6.945312 36.097656 C 5.296875 36.097656 3.96875 34.769531 3.96875 33.121094 L 3.96875 32.375 C 3.96875 34.023438 5.296875 35.351562 6.945312 35.351562 L 40.683594 35.351562 C 42.332031 35.351562 43.660156 34.023438 43.660156 32.375 L 43.660156 33.121094 C 43.660156 34.769531 42.332031 36.097656 40.683594 36.097656 Z M 6.945312 36.097656 "/>
<path style="fill:none;stroke-width:3;stroke-linecap:round;stroke-linejoin:round;stroke:rgb(12.941177%,12.941177%,12.941177%);stroke-opacity:1;stroke-miterlimit:4;" d="M 74.076259 -168.671091 L 433.916896 -168.671091 C 451.456888 -168.671091 465.663865 -154.464114 465.663865 -136.924123 L 465.663865 138.257932 C 465.663865 155.797924 451.456888 170.004901 433.916896 170.004901 L 74.076259 170.004901 C 56.536268 170.004901 42.329291 155.797924 42.329291 138.257932 L 42.329291 -136.924123 C 42.329291 -154.464114 56.536268 -168.671091 74.076259 -168.671091 Z M 74.076259 -168.671091 " transform="matrix(0.093759,0,0,0.093759,0,20.158175)"/>
<path style=" stroke:none;fill-rule:nonzero;fill:rgb(0%,0%,0%);fill-opacity:0.235294;" d="M 29.515625 36.097656 L 30.34375 36.839844 L 39.691406 36.839844 L 39.691406 36.097656 Z M 29.515625 36.097656 "/>
<path style=" stroke:none;fill-rule:nonzero;fill:url(#linear4);" d="M 23.824219 17.242188 C 25.46875 17.242188 26.800781 18.578125 26.800781 20.21875 C 26.800781 21.863281 25.46875 23.199219 23.824219 23.199219 C 22.179688 23.199219 20.847656 21.863281 20.847656 20.21875 C 20.847656 18.578125 22.179688 17.242188 23.824219 17.242188 Z M 23.824219 17.242188 "/>
<path style=" stroke:none;fill-rule:nonzero;fill:rgb(100%,100%,100%);fill-opacity:0.392157;" d="M 23.824219 17.242188 C 22.175781 17.242188 20.847656 18.570312 20.847656 20.21875 C 20.847656 20.304688 20.851562 20.386719 20.859375 20.46875 C 20.984375 18.9375 22.257812 17.738281 23.824219 17.738281 C 25.390625 17.738281 26.667969 18.9375 26.792969 20.46875 C 26.796875 20.386719 26.800781 20.304688 26.800781 20.21875 C 26.800781 18.570312 25.472656 17.242188 23.824219 17.242188 Z M 23.824219 17.242188 "/>
<path style=" stroke:none;fill-rule:nonzero;fill:rgb(0%,0%,0%);fill-opacity:0.235294;" d="M 23.824219 23.816406 C 22.175781 23.816406 20.847656 22.488281 20.847656 20.839844 C 20.847656 20.757812 20.851562 20.675781 20.859375 20.59375 C 20.984375 22.125 22.257812 23.320312 23.824219 23.320312 C 25.390625 23.320312 26.667969 22.125 26.792969 20.59375 C 26.796875 20.675781 26.800781 20.757812 26.800781 20.839844 C 26.800781 22.488281 25.472656 23.816406 23.824219 23.816406 Z M 23.824219 23.816406 "/>
<path style=" stroke:none;fill-rule:nonzero;fill:rgb(12.941177%,12.941177%,12.941177%);fill-opacity:1;" d="M 23.824219 17.101562 C 22.101562 17.101562 20.707031 18.496094 20.707031 20.21875 C 20.707031 21.945312 22.101562 23.339844 23.824219 23.339844 C 25.550781 23.339844 26.941406 21.945312 26.941406 20.21875 C 26.941406 18.496094 25.550781 17.101562 23.824219 17.101562 Z M 23.824219 17.382812 C 25.398438 17.382812 26.660156 18.648438 26.660156 20.21875 C 26.660156 21.792969 25.398438 23.058594 23.824219 23.058594 C 22.25 23.058594 20.988281 21.792969 20.988281 20.21875 C 20.988281 18.648438 22.25 17.382812 23.824219 17.382812 Z M 23.824219 17.382812 "/>
<path style=" stroke:none;fill-rule:nonzero;fill:url(#linear5);" d="M 31.761719 17.242188 C 33.40625 17.242188 34.738281 18.578125 34.738281 20.21875 C 34.738281 21.863281 33.40625 23.199219 31.761719 23.199219 C 30.121094 23.199219 28.785156 21.863281 28.785156 20.21875 C 28.785156 18.578125 30.121094 17.242188 31.761719 17.242188 Z M 31.761719 17.242188 "/>
<path style=" stroke:none;fill-rule:nonzero;fill:rgb(100%,100%,100%);fill-opacity:0.392157;" d="M 31.761719 17.242188 C 30.113281 17.242188 28.785156 18.570312 28.785156 20.21875 C 28.785156 20.304688 28.789062 20.386719 28.796875 20.46875 C 28.921875 18.9375 30.199219 17.738281 31.761719 17.738281 C 33.328125 17.738281 34.605469 18.9375 34.730469 20.46875 C 34.738281 20.386719 34.738281 20.304688 34.738281 20.21875 C 34.738281 18.570312 33.414062 17.242188 31.761719 17.242188 Z M 31.761719 17.242188 "/>
<path style=" stroke:none;fill-rule:nonzero;fill:rgb(0%,0%,0%);fill-opacity:0.235294;" d="M 31.761719 23.816406 C 30.113281 23.816406 28.785156 22.488281 28.785156 20.839844 C 28.785156 20.757812 28.789062 20.675781 28.796875 20.59375 C 28.921875 22.125 30.199219 23.320312 31.761719 23.320312 C 33.328125 23.320312 34.605469 22.125 34.730469 20.59375 C 34.738281 20.675781 34.738281 20.757812 34.738281 20.839844 C 34.738281 22.488281 33.414062 23.816406 31.761719 23.816406 Z M 31.761719 23.816406 "/>
<path style=" stroke:none;fill-rule:nonzero;fill:rgb(12.941177%,12.941177%,12.941177%);fill-opacity:1;" d="M 31.761719 17.101562 C 30.039062 17.101562 28.644531 18.496094 28.644531 20.21875 C 28.644531 21.945312 30.039062 23.339844 31.761719 23.339844 C 33.488281 23.339844 34.878906 21.945312 34.878906 20.21875 C 34.878906 18.496094 33.488281 17.101562 31.761719 17.101562 Z M 31.761719 17.382812 C 33.335938 17.382812 34.597656 18.648438 34.597656 20.21875 C 34.597656 21.792969 33.335938 23.058594 31.761719 23.058594 C 30.191406 23.058594 28.925781 21.792969 28.925781 20.21875 C 28.925781 18.648438 30.191406 17.382812 31.761719 17.382812 Z M 31.761719 17.382812 "/>
</g>
</svg>
